X:1
T:Title
%%score 1 { 2 | 3 }
L:1/8
Q:1/4=90
M:6/8
K:Eb
V:1 treble nm="Grand Piano, Soprano"
V:2 bass nm="Choir Pad, Kaibab, 87.87 D"
V:3 bass 
V:1
 [EB]>[E=A][EB] [Ec][EB][EG] | [EG]3 [DF]3 | [DF]>[EG][FA] [_G=A][=GB][DF] | [EG]6 | %4
w: By~O.~W.~Schaeffer,~1885 * * * * *||||
 [EB]>[E=A][EB] [Ec][EB][EG] | [EG]3 [DF]3 | [Fd]>[Ge][Fd] [Ec][EG][E=A] | [DB]6 | %8
w: ||||
 [FA]>[GB][FA] [EG][DF][B,E] | [EG]3 [DF]3 | [=Ec]>[E_d][Ec] [Ec][EG][EB] | [FA]6 | %12
w: ||||
 [DF]>[EG][FA] [GB][Ac][Ad] | [Af]3 [Ge]3 | [EF][_Gd][Gc] [=GB][B,E][B,F] | [B,E]6- | [B,E]3 z3 |] %17
w: |||||
V:2
 G,>_G,=G, A,G,B, | B,3 B,3 | B,>B,B, B,B,B, | B,6 | G,>_G,=G, A,G,B, | B,3 B,3 | B,>B,B, =A,A,C | %7
 B,6 | B,>B,B, B,A,G, | B,3 B,3 | G,>G,G, G,[K:treble]CC | C6 | B,>B,[K:bass]B, B,B,B, | B,3 B,3 | %14
 CEE B,G,=A, | G,6- | G,3 z3 |] %17
V:3
 E,>E,E, E,E,E, | B,,3 B,,3 | B,,>B,,B,, B,,B,,B,, | E,6 | E,>E,E, E,E,E, | B,,3 B,,3 | %6
 F,>F,F, F,F,F, | B,,6 | B,,>B,,B,, B,,B,,B,, | E,3 B,,3 | C,>C,C, C,C,C, | F,6 | %12
 B,,>B,,B,, B,,B,,B,, | E,3 E,3 | A,,=A,,A,, B,,B,,B,, | E,6- | E,3 z3 |] %17

